dist/static/images/icons/svg/phone.svg

<svg width="108" height="108" viewBox="0 0 108 108" fill="none" xmlns="http://www.w3.org/2000/svg">
<path d="M105.06 79.2611L89.9887 64.1894C84.6059 58.8066 75.4552 60.9599 73.3021 67.9573C71.6873 72.802 66.3046 75.4934 61.4601 74.4166C50.6946 71.7253 36.1611 57.7301 33.4697 46.4263C31.8549 41.5816 35.0846 36.1988 39.929 34.5842C46.9266 32.4311 49.0797 23.2804 43.697 17.8977L28.6252 2.82595C24.319 -0.941983 17.8597 -0.941983 14.0918 2.82595L3.86456 13.0532C-6.36268 23.8187 4.94112 52.3473 30.2401 77.6463C55.539 102.945 84.0676 114.788 94.8332 104.022L105.06 93.7946C108.829 89.4884 108.829 83.029 105.06 79.2611Z" fill="#E3EEFF"/>
</svg>

<svg width="108" height="108" viewBox="0 0 108 108" fill="none" xmlns="http://www.w3.org/2000/svg"><path d="M105.06 79.261L89.989 64.19c-5.383-5.382-14.534-3.23-16.687 3.768-1.615 4.845-6.997 7.536-11.842 6.46-10.765-2.692-25.299-16.687-27.99-27.99-1.615-4.845 1.615-10.228 6.459-11.843 6.998-2.153 9.15-11.304 3.768-16.686L28.625 2.826c-4.306-3.768-10.765-3.768-14.533 0L3.865 13.053C-6.363 23.82 4.94 52.347 30.24 77.646c25.299 25.299 53.828 37.142 64.593 26.376l10.227-10.227c3.769-4.307 3.769-10.766 0-14.534z" fill="#E3EEFF"/></svg>
